X: 25250
T: Man From Dunblane, The
R: reel
M: 4/4
K: Bminor
|:dBBA BBAB|deef edBA|dBBA BBAF|DEEF ABcA|
cdBA BBAB|deef edBA|ddfd egfe|dBAF DEFA:|
|:cdBd ABde|fbaf edBA|dfff defa|fged cABc|
cdBd ABde|fbaf efaf|bfff afab|afed cABc:|

